X:13
T:Jaunting Jig, The
R:jig
M:6/8
K:D
C:Travis Crofton
L:1/8
D2D AGF | EFG GFE | D2D AGF | EFG F3 |
D2D AGF | EFG GFE | BAG FGF |1 E2E GFE :|2 A6 |]
A2A AFA | d2c B2A | F2F FAF | E2E FED |
A2A AFA | d2c B2c | d3 dcB | A2A BAF ||
A2A AFA | d2c B2A | F2F FAF | E2E FEF |
A2A AFA | B2A F2A | E2E EFE | D6 |


